X: 23907
T: Loch Lomond
R: reel
M: 4/4
K: Gmajor
A,B,|D2 DE F2 FE|D2 DB, A,2 A,B,|E2 EE E2 FA|B4 A4|
B2 BA F2 FA|GF ED B,2 A,B,|D2 FA B2 AF|E4 D4||

